Sources/FrostedUI/Resources/Icons.xcassets/webcamOff12.imageset/webcam-off-12.svg

<svg width="12" height="12" viewBox="0 0 12 12" fill="none" xmlns="http://www.w3.org/2000/svg" data-fui-icon="true">
  <g clip-path="url(#clip0_5213_43)">
    <path
      d="M0.782227 0.969971C1.07511 0.677103 1.54989 0.677103 1.84277 0.969971L2.41122 1.53842C2.41235 1.53955 2.41405 1.53989 2.41553 1.5393C2.41701 1.53872 2.4187 1.53906 2.41983 1.54019L3.68997 2.81033C3.69086 2.81122 3.69023 2.81274 3.68896 2.81274C3.6877 2.81274 3.68707 2.81427 3.68796 2.81516L8.11545 7.24265C8.11649 7.24369 8.11805 7.2439 8.11914 7.24291C8.12023 7.24193 8.12179 7.24215 8.12282 7.24318L10.6692 9.78953C10.67 9.79038 10.6698 9.79192 10.669 9.79272C10.6681 9.79353 10.6679 9.79508 10.6687 9.79593L11.2178 10.345C11.5105 10.6379 11.5106 11.1127 11.2178 11.4055C10.9249 11.6982 10.4501 11.6982 10.1572 11.4055L8.56776 9.81605C8.49133 9.73962 8.36663 9.74391 8.28989 9.82002C7.75003 10.3555 7.00934 10.6877 6.1875 10.6877H3.5625C1.95746 10.6877 0.646901 9.42696 0.566406 7.84204L0.5625 7.68774V4.31274C0.562508 3.67122 0.765145 3.0775 1.10834 2.58993C1.16307 2.51219 1.15734 2.40563 1.09011 2.3384L0.782227 2.03052C0.489412 1.73768 0.489516 1.26287 0.782227 0.969971ZM2.45151 3.6998C2.36573 3.61402 2.2217 3.63129 2.17539 3.74341C2.10288 3.91893 2.06251 4.11108 2.0625 4.31274V7.68774L2.07031 7.84106C2.14728 8.59736 2.78602 9.18774 3.5625 9.18774H6.1875C6.60587 9.18774 6.98396 9.01559 7.25563 8.73841C7.32203 8.67066 7.31477 8.56306 7.24769 8.49598L2.45151 3.6998ZM6.1875 1.31274C7.20804 1.31274 8.10512 1.82345 8.64592 2.60144C8.71392 2.69925 8.85334 2.72068 8.9414 2.64045L9.17676 2.42603L9.25977 2.35571C10.1295 1.67359 11.4375 2.28677 11.4375 3.4231V7.9841C11.4375 8.15115 11.2355 8.2348 11.1174 8.11668L9.99242 6.99168C9.95725 6.95652 9.9375 6.90883 9.9375 6.8591V4.18749C9.9375 4.02446 9.74379 3.9391 9.62347 4.04912L8.99023 4.62817C8.4959 5.07927 7.74621 4.74687 7.6748 4.13599C7.5878 3.39044 6.95508 2.81274 6.1875 2.81274H5.89114C5.84141 2.81274 5.79372 2.79299 5.75856 2.75783L4.63356 1.63283C4.51544 1.51471 4.5991 1.31274 4.76614 1.31274H6.1875Z"
      fill="currentColor"
    />
  </g>
  <defs>
    <clipPath id="clip0_5213_43"><path fill="currentColor" d="M0 0H12V12H0z" /></clipPath>
  </defs>
</svg>

<svg xmlns="http://www.w3.org/2000/svg" width="12" height="12" fill="none" data-fui-icon="true" viewBox="0 0 12 12"><g clip-path="url(#a)"><path fill="currentColor" d="M.782.97a.75.75 0 0 1 1.06 0l.57.568.004.001.004.001 1.27 1.27-.001.003a.001.001 0 0 0-.001.002l4.427 4.428h.008l2.546 2.547v.006l.549.549a.75.75 0 0 1-1.06 1.06l-1.59-1.589a.197.197 0 0 0-.278.004c-.54.535-1.28.868-2.102.868H3.563A3 3 0 0 1 .566 7.842l-.003-.154V4.313c0-.642.202-1.235.545-1.723a.196.196 0 0 0-.018-.252l-.308-.307a.75.75 0 0 1 0-1.061m1.67 2.73c-.086-.086-.23-.069-.277.043a1.5 1.5 0 0 0-.112.57v3.375l.007.153a1.5 1.5 0 0 0 1.493 1.347h2.625c.418 0 .796-.172 1.068-.45.066-.067.059-.175-.008-.242zm3.736-2.387c1.02 0 1.917.51 2.458 1.288.068.098.207.12.295.04l.236-.215.083-.07c.87-.682 2.178-.07 2.178 1.067v4.561c0 .167-.203.25-.32.133L9.991 6.992a.19.19 0 0 1-.055-.133V4.187a.188.188 0 0 0-.314-.138l-.633.58c-.494.45-1.244.118-1.315-.493a1.5 1.5 0 0 0-1.487-1.323H5.89a.2.2 0 0 1-.132-.055L4.634 1.633a.188.188 0 0 1 .132-.32z"/></g><defs><clipPath id="a"><path fill="currentColor" d="M0 0h12v12H0z"/></clipPath></defs></svg>
